!!!COM: Palestrina, Giovanni Perluigi da
!!!OPR: Missa Ave Maria (1596)
!!!OMD: Credo
!!!OTL: First Section
**kern	**kern	**kern	**kern	**kern	**kern
*Ibass	*Itenor	*Itenor	*Icalto	*Icalto	*Icant
!Bassus	!Tenor 2	!Tenor 1	!Altus 2	!Altus 1	!Cantus
*clefF4	*clefGv2	*clefGv2	*clefG2	*clefG2	*clefG2
*k[b-]	*k[b-]	*k[b-]	*k[b-]	*k[b-]	*k[b-]
*F:ion	*F:ion	*F:ion	*F:ion	*F:ion	*F:ion
*M4/2	*M4/2	*M4/2	*M4/2	*M4/2	*M4/2
=1	=1	=1	=1	=1	=1
0r	0r	0r	0r	0f	0r
=2	=2	=2	=2	=2	=2
0r	0r	0r	0r	1e	0r
.	.	.	.	1f	.
=3	=3	=3	=3	=3	=3
0r	0r	0B-	0r	2f	0r
.	.	.	.	2f	.
.	.	.	.	1d	.
=4	=4	=4	=4	=4	=4
0r	0r	1A	1r	2c	0r
.	.	.	.	2.f	.
.	.	1B-	[1f	.	.
.	.	.	.	4e-	.
.	.	.	.	4d	.
.	.	.	.	4c	.
=5	=5	=5	=5	=5	=5
0r	0r	2B-	1f]	1d	0b-
.	.	2B-	.	.	.
.	.	1G	1e	1B-	.
=6	=6	=6	=6	=6	=6
0r	0r	1F	1f	1c	1a
.	.	2.B-	2f	1d	1b-
.	.	.	2f	.	.
.	.	4c	.	.	.
=7	=7	=7	=7	=7	=7
0r	0r	4d	1d	1B-	2b-
.	.	4e	.	.	.
.	.	1f	.	.	2b-
.	.	.	1c	2r	1g
.	.	2e	.	[2c	.
=8	=8	=8	=8	=8	=8
0F	0r	1f	2r	2c]	2.a
.	.	.	2c	2A	.
.	.	.	.	.	4b-
.	.	[1c	4A	1a	[1cc
.	.	.	4B-	.	.
.	.	.	4c	.	.
.	.	.	4d	.	.
=9	=9	=9	=9	=9	=9
1E	0r	2c]	4e	1g	0cc]
.	.	.	4f	.	.
.	.	2B-	2g	.	.
1F	.	2A	1c	[1a	.
.	.	4F	.	.	.
.	.	4G	.	.	.
=10	=10	=10	=10	=10	=10
2F	0r	4A	2c	1a]	1r
.	.	4B-	.	.	.
2F	.	1c	2c	.	.
1D	.	.	1d	1f	2r
.	.	2B	.	.	2dd
=11	=11	=11	=11	=11	=11
0C	0r	0c	1g	0e	2ee
.	.	.	.	.	2cc
.	.	.	2r	.	1gg
.	.	.	2g	.	.
=12	=12	=12	=12	=12	=12
0r	0r	1r	2a	0r	2ee
.	.	.	2f	.	1ff
.	.	2r	1cc	.	.
.	.	2c	.	.	2ee
=13	=13	=13	=13	=13	=13
2r	0r	2d	2a	0r	1dd
2G	.	2B-	2.b-	.	.
2A	.	[1f	.	.	[1cc
.	.	.	4a	.	.
2F	.	.	[2a	.	.
=14	=14	=14	=14	=14	=14
1c	0r	2f]	4a]	2r	1cc]
.	.	.	4g	.	.
.	.	2e	2.g	2g	.
2A	.	2c	.	2a	1r
.	.	.	4f	.	.
2B-	.	[2d	[2f	2f	.
=15	=15	=15	=15	=15	=15
1G	0r	2d]	2f]	1b-	1r
.	.	4c	2e	.	.
.	.	4B-	.	.	.
1F	.	2c	1f	2a	2r
.	.	2d	.	2f	[2ff
=16	=16	=16	=16	=16	=16
2r	0r	1c	1r	1g	2ff]
1c	.	.	.	.	2ee
.	.	1G	1d	1g	2dd
2B-	.	.	.	.	2dd
=17	=17	=17	=17	=17	=17
2A	0r	0r	1e	2r	1cc
2A	.	.	.	1cc	.
1G	.	.	2g	.	2dd
.	.	.	2g	2b-	2ee
=18	=18	=18	=18	=18	=18
2F	0r	2r	1c	2a	1ff
2F	.	1c	.	2a	.
1G	.	.	2e	1g	2r
.	.	2B-	2d	.	[2dd
=19	=19	=19	=19	=19	=19
0r	0r	2.A	1a	2f	2dd]
.	.	.	.	2e	1cc
.	.	4G	.	.	.
.	.	2F	2r	1d	.
.	.	2G	2g	.	2b-
=20	=20	=20	=20	=20	=20
0r	0r	2A	2f	2.c	2a
.	.	2c	2e	.	4g
.	.	.	.	4c	4a
.	.	2.B-	2d	4f	4b-
.	.	.	.	4e	4cc
.	.	.	[2f	4d	[2dd
.	.	4A	.	4c	.
=21	=21	=21	=21	=21	=21
0r	0r	1G	2f]	2B-	2dd]
.	.	.	2e	2B-	4cc
.	.	.	.	.	4b-
.	.	1F	[1f	2c	4a
.	.	.	.	.	2b-
.	.	.	.	2c	.
.	.	.	.	.	4a
=22	=22	=22	=22	=22	=22
1.BB-	[0B-	1.f	1f]	0d	1b-
.	.	.	2r	.	[1dd
2BB-	.	2f	[2f	.	.
=23	=23	=23	=23	=23	=23
1BB-	0B-]	1d	2f]	2r	2dd]
.	.	.	2d	1f	2dd
1BB-	.	1B-	2.f	.	2dd
.	.	.	.	2d	2dd
.	.	.	4g	.	.
=24	=24	=24	=24	=24	=24
1.F	[0A	1.c	2a	2.f	1.cc
.	.	.	2a	.	.
.	.	.	.	4g	.
.	.	.	1f	2a	.
2F	.	2c	.	2a	2cc
=25	=25	=25	=25	=25	=25
1F	0A]	2c	0a	2f	1cc
.	.	2.f	.	2c	.
[1D	.	.	.	2d	[1ff
.	.	4e	.	.	.
.	.	4d	.	[2f	.
.	.	4c	.	.	.
=26	=26	=26	=26	=26	=26
1D]	[0A	1d	0a	4f]	1ff]
.	.	.	.	4e	.
.	.	.	.	1d	.
1A	.	1e	.	.	1ee
.	.	.	.	2c#	.
=27	=27	=27	=27	=27	=27
0D	0A]	2.f	2.a	4d	0dd
.	.	.	.	4e	.
.	.	.	.	4f	.
.	.	4e	4g	4g	.
.	.	1d	1f	1a	.
=28	=28	=28	=28	=28	=28
[0AA	[0A	2c#	2.e	0a	1ee
.	.	2e	.	.	.
.	.	.	4d	.	.
.	.	2e	[1c	.	2r
.	.	2e	.	.	2a
=29	=29	=29	=29	=29	=29
0AA]	0A]	2f	1c]	2r	2a
.	.	4e	.	2a	2a
.	.	4d	.	.	.
.	.	1e	1r	2a	1cc
.	.	.	.	2a	.
=30	=30	=30	=30	=30	=30
0r	0B-	1d	2r	2.f	2dd
.	.	.	2d	.	2.ff
.	.	.	.	8g	.
.	.	.	.	8a	.
.	.	2r	2d	1b-	.
.	.	.	.	.	4ee
.	.	[2f	2d	.	2dd
=31	=31	=31	=31	=31	=31
0r	[0F	4f]	2.f	2a	2cc
.	.	4e	.	.	.
.	.	2d	.	2a	2.ff
.	.	.	4g	.	.
.	.	2c	2a	2.f	.
.	.	.	.	.	4ee
.	.	[2f	2a	.	2dd
.	.	.	.	4g	.
=32	=32	=32	=32	=32	=32
0r	1F_	4f]	2.f	2a	2cc
.	.	4e	.	.	.
.	.	4d	.	1f	2.b-
.	.	8c	4f	.	.
.	.	8B-	.	.	.
.	1F_	2c	2f	.	.
.	.	.	.	.	8a
.	.	.	.	.	8g
.	.	2c	2f	2c	2a
=33	=33	=33	=33	=33	=33
1BB-	0F]	2B-	1f	1d	1b-
.	.	1B-	.	.	.
2BB-	.	.	1d	1f	1r
[2D	.	2A	.	.	.
=34	=34	=34	=34	=34	=34
2D]	[0A	1d	1r	2f	2r
2D	.	.	.	2a	1f
2.F	.	1c	2r	2a	.
.	.	.	[2c	[2cc	2f
4E	.	.	.	.	.
=35	=35	=35	=35	=35	=35
4F	0A]	0r	2c]	4cc]	2a
4G	.	.	.	4b-	.
2.A	.	.	2c	4a	2a
.	.	.	.	4g	.
.	.	.	2e	1a	1cc
4B-	.	.	.	.	.
[2c	.	.	2e	.	.
=36	=36	=36	=36	=36	=36
2c]	0G	0r	1g	1d	2dd
4B-	.	.	.	.	1g
4A	.	.	.	.	.
2.B-	.	.	2.d	2r	.
.	.	.	.	[2g	2g
4A	.	.	4c	.	.
=37	=37	=37	=37	=37	=37
2G	0G	1r	4d	2g]	2b-
.	.	.	4B-	.	.
2C	.	.	2e-	2g	2cc
1G	.	2r	1d	2.b-	1dd
.	.	[2G	.	.	.
.	.	.	.	4a	.
=38	=38	=38	=38	=38	=38
0r	[0B-	2G]	2r	1g	2.b-
.	.	2G	1d	.	.
.	.	.	.	.	4cc
.	.	2.B-	.	2.f	4dd
.	.	.	.	.	4ee
.	.	.	2d	.	[2ff
.	.	4c	.	4e	.
=39	=39	=39	=39	=39	=39
0r	0B-]	2d	2.f	4d	4ff]
.	.	.	.	4c	4ee
.	.	1f	.	2B-	4dd
.	.	.	4e	.	4cc
.	.	.	2d	2b-	2dd
.	.	4e	[2g	2b-	2dd
.	.	4d	.	.	.
=40	=40	=40	=40	=40	=40
0r	[0c	4e	4g]	1g	[0cc
.	.	4f	4f	.	.
.	.	1g	4e	.	.
.	.	.	4d	.	.
.	.	.	2e	1r	.
.	.	[2f	2a	.	.
=41	=41	=41	=41	=41	=41
1r	1c_	2f]	0g	1r	0cc]
.	.	4e	.	.	.
.	.	4d	.	.	.
1C	1c_	2e	.	2r	.
.	.	2e	.	2g	.
=42	=42	=42	=42	=42	=42
2F	0c]	1f	2r	2a	1r
2F	.	.	2f	2a	.
1A	.	2r	2e	1cc	2r
.	.	2F	2c	.	2cc
=43	=43	=43	=43	=43	=43
1G	0r	2B-	1g	1b-	2dd
.	.	2B-	.	.	2dd
2r	.	1d	1f	2a	[1ff
2D	.	.	.	2a	.
=44	=44	=44	=44	=44	=44
2F	0r	1c	2r	2a	1ff]
2F	.	.	2a	2a	.
2A	.	2r	2a	1cc	2ee
2A	.	2A	2e	.	2cc
=45	=45	=45	=45	=45	=45
1G	0r	2B-	2g	1b-	2dd
.	.	2B-	2g	.	2dd
2r	.	2d	1f	1a	[1ff
2D	.	2d	.	.	.
=46	=46	=46	=46	=46	=46
1F	0r	1c	2r	1a	2ff]
.	.	.	1a	.	2ff
1A	.	2r	.	1cc	2ee
.	.	2A	2e	.	2cc
=47	=47	=47	=47	=47	=47
1G	0r	1B-	1g	1b-	1dd
1r	.	1d	4f	1a	1ff
.	.	.	4g	.	.
.	.	.	4a	.	.
.	.	.	4b-	.	.
=48	=48	=48	=48	=48	=48
1C	0r	0c	1cc	2r	2.ee
.	.	.	.	2g	.
.	.	.	.	.	4dd
1F	.	.	2r	1a	1cc
.	.	.	2f	.	.
=49	=49	=49	=49	=49	=49
1A	0r	2r	2e	1cc	2r
.	.	2F	2c	.	2cc
1G	.	1B-	1g	1b-	1dd
=50	=50	=50	=50	=50	=50
4D	0r	1d	4f	1.a	1ff
4E	.	.	4g	.	.
4F	.	.	4a	.	.
4G	.	.	4b-	.	.
4A	.	1c	2cc	.	1ee
4B-	.	.	.	.	.
[2c	.	.	2c	4g	.
.	.	.	.	4f	.
=51	=51	=51	=51	=51	=51
2c]	0r	0G	2d	2.g	0dd
4B	.	.	2d	.	.
4A	.	.	.	8f	.
.	.	.	.	8e	.
1B	.	.	1g	4d	.
.	.	.	.	4c	.
.	.	.	.	2d	.
=52	=52	=52	=52	=52	=52
0c	0r	2r	1g	1.e	[0cc
.	.	1g	.	.	.
.	.	.	2r	.	.
.	.	2g	[2g	2c	.
=53	=53	=53	=53	=53	=53
2r	0r	2e	2g]	1c	1cc]
1c	.	2c	2g	.	.
.	.	4g	1e	1r	2r
.	.	4f	.	.	.
2c	.	4e	.	.	[2cc
.	.	4d	.	.	.
=54	=54	=54	=54	=54	=54
2A	0r	2e	1c	0r	2cc]
1F	.	2.f	.	.	2cc
.	.	.	2.f	.	2a
.	.	4e	.	.	.
[2B-	.	4d	.	.	2f
.	.	4c	8e	.	.
.	.	.	8f	.	.
=55	=55	=55	=55	=55	=55
4B-]	0r	1d	4g	0r	0b-
4A	.	.	4f	.	.
4G	.	.	1f	.	.
4F	.	.	.	.	.
1G	.	1B-	.	.	.
.	.	.	2e	.	.
=56	=56	=56	=56	=56	=56
[0F	0r	0c	1f	2r	[0a
.	.	.	.	1f	.
.	.	.	2r	.	.
.	.	.	[2f	2f	.
=57	=57	=57	=57	=57	=57
0F]	0r	0r	2f]	2d	1a]
.	.	.	2f	2c	.
.	.	.	2d	2.f	2r
.	.	.	2c	.	[2cc
.	.	.	.	4g	.
=58	=58	=58	=58	=58	=58
0r	0r	0r	2.f	1a	2cc]
.	.	.	.	.	2cc
.	.	.	4e	.	.
.	.	.	4f	2.d	2a
.	.	.	4g	.	.
.	.	.	[2a	.	2f
.	.	.	.	4e	.
=59	=59	=59	=59	=59	=59
0r	0r	0r	4a]	4f	1.cc
.	.	.	4g	4g	.
.	.	.	4f	1a	.
.	.	.	4e	.	.
.	.	.	2f	.	.
.	.	.	2B-	[2g	2b-
=60	=60	=60	=60	=60	=60
0r	0r	1r	1d	4g]	2a
.	.	.	.	4f	.
.	.	.	.	1f	4g
.	.	.	.	.	4f
.	.	2r	1c	.	1g
.	.	[2c	.	4e	.
.	.	.	.	4d	.
=61	=61	=61	=61	=61	=61
0r	0r	2c]	2r	0e	1g
.	.	2c	1cc	.	.
.	.	2A	.	.	2r
.	.	2A	2cc	.	[2cc
=62	=62	=62	=62	=62	=62
2r	0r	1F	2a	2.f	2cc]
1F	.	.	2a	.	2cc
.	.	.	.	8e	.
.	.	.	.	8d	.
.	.	2r	2f	1c	2a
2F	.	[2f	2g	.	2a
=63	=63	=63	=63	=63	=63
2D	0r	2f]	1a	2r	1f
2D	.	2f	.	1f	.
[1BB-	.	2d	2r	.	2.b-
.	.	2d	[2b-	2f	.
.	.	.	.	.	4cc
=64	=64	=64	=64	=64	=64
1BB-]	[0f	2B-	2b-]	2d	4dd
.	.	.	.	.	4ee
.	.	2.F	2b-	2d	1ff
1F	.	.	2.a	1c	.
.	.	4G	.	.	.
.	.	[2A	.	.	4ee
.	.	.	4a	.	4dd
=65	=65	=65	=65	=65	=65
1F	0f]	4A]	1a	1A	1cc
.	.	4B-	.	.	.
.	.	1c	.	.	.
1D	.	.	2f	1d	1dd
.	.	2B	2d	.	.
=66	=66	=66	=66	=66	=66
[0C	[0e	1c	2.g	1G	2ee
.	.	.	.	.	2cc
.	.	.	4f	.	.
.	.	2r	4g	1r	2cc
.	.	.	4f	.	.
.	.	2G	4e	.	2cc
.	.	.	4d	.	.
=67	=67	=67	=67	=67	=67
0C]	0e]	2G	1c	1g	1gg
.	.	2G	.	.	.
.	.	1c	1r	2g	[1ee
.	.	.	.	2g	.
=68	=68	=68	=68	=68	=68
0r	[0e	2A	1r	1cc	2ee]
.	.	2A	.	.	2ee
.	.	2.A	2r	2a	[1cc
.	.	.	2c	2a	.
.	.	4B-	.	.	.
=69	=69	=69	=69	=69	=69
1C	0e]	0c	2c	1g	0cc]
.	.	.	2c	.	.
2C	.	.	1g	2r	.
2C	.	.	.	2g	.
=70	=70	=70	=70	=70	=70
1c	[0e	0r	2e	2g	0r
.	.	.	2c	2g	.
1A	.	.	2c	1cc	.
.	.	.	2c	.	.
=71	=71	=71	=71	=71	=71
2A	0e]	0r	1cc	2c	0r
2A	.	.	.	2c	.
1G	.	.	2b-	1g	.
.	.	.	2b-	.	.
=72	=72	=72	=72	=72	=72
1F	0f	1r	1a	1c	2r
.	.	.	.	.	2cc
1r	.	2r	1d	1r	2a
.	.	2B-	.	.	2f
=73	=73	=73	=73	=73	=73
1r	[0c	2A	2e	2r	2.a
.	.	2F	2a	2f	.
.	.	.	.	.	4b-
2r	.	2.A	1a	2e	1cc
2F	.	.	.	2c	.
.	.	4B-	.	.	.
=74	=74	=74	=74	=74	=74
2E	1c_	2.c	2g	2e	0cc
2C	.	.	2e	1g	.
.	.	8B-	.	.	.
.	.	8A	.	.	.
2E	1c_	2G	2g	.	.
2F	.	2c	2a	[2f	.
=75	=75	=75	=75	=75	=75
1C	0c]	4c	1g	2f]	1cc
.	.	4d	.	.	.
.	.	4e	.	4e	.
.	.	4f	.	4d	.
1r	.	1g	1r	1e	1r
=76	=76	=76	=76	=76	=76
0C	[0e	1r	0c	0g	0cc
.	.	1c	.	.	.
=77	=77	=77	=77	=77	=77
1C	0e]	1c	1e	1.g	1cc
1C	.	1c	1g	.	1cc
.	.	.	.	2a	.
=78	=78	=78	=78	=78	=78
1G	0d	1B-	1.g	1b-	1dd
1G	.	1G	.	1b-	1dd
.	.	.	2g	.	.
=79	=79	=79	=79	=79	=79
2D	0d	2A	2f#	1a	0dd
2D	.	2A	2f#	.	.
1G	.	1B-	1g	1r	.
=80	=80	=80	=80	=80	=80
2F	[0f	2c	2a	0r	0r
2F	.	2c	2a	.	.
1BB-	.	1d	1b-	.	.
=81	=81	=81	=81	=81	=81
1F	0f]	2c	1a	2r	2r
.	.	1F	.	1a	1ff
1r	.	.	[1cc	.	.
.	.	2F	.	2a	2ff
=82	=82	=82	=82	=82	=82
0r	[0g	1c	2cc]	2g	1ee
.	.	.	2c	2.cc	.
.	.	1G	2d	.	1dd
.	.	.	.	8b-	.
.	.	.	.	8a	.
.	.	.	2d	2b	.
=83	=83	=83	=83	=83	=83
0r	0g]	1.c	4c	1.cc	1.ee
.	.	.	4d	.	.
.	.	.	4e	.	.
.	.	.	4f	.	.
.	.	.	2g	.	.
.	.	2c	2c	2cc	2ee
=84	=84	=84	=84	=84	=84
1r	[0g	0G	1d	1b	1dd
1C	.	.	1e	2r	1cc
.	.	.	.	2cc	.
=85	=85	=85	=85	=85	=85
1G	0g]	2r	1d	1b	1dd
.	.	2G	.	.	.
1C	.	2G	2c	2cc	1ee
.	.	2G	[2cc	2c	.
=86	=86	=86	=86	=86	=86
1G	[0g	1.G	2cc]	0d	1.dd
.	.	.	4b	.	.
.	.	.	4a	.	.
1G	.	.	2b	.	.
.	.	2G	2b	.	2dd
=87	=87	=87	=87	=87	=87
0C	0g]	0G	0cc	0c	0ee
*-	*-	*-	*-	*-	*-
!!!CDT: 1525/^1526/-1594/2/2
!!!OCY: Italia
!!!AGN: Mass (Tenor)
!!!AST: renaissance, vocal
!!!ASW: Motet 1563 (Palestrina)
!!!PWK: Masses, Book 6
!!!RNB: Cadence finals: C
!!!YOR: Le Opere Complete, v. 21, p. 142
!!!YOO: Rome, Italy: Fratelli Scalera
!!!END: 1992//
!!!EED: John Miller
!!!YEC: Copyright 2000, John Miller
!!!YEN: United States of America
!!!YEM: Rights to all derivative electronic formats reserved.
!!!YEM: Refer to licensing agreement for further details.
!!!YEM: This file must be accompanied by the licensing agreement.
!!!YEM: A copy of the licensing agreement may be found at http://www.music-cog.ohio-state.edu/HumdrumDatabases/Palestrina/license.txt
!!!EMD: converted to Humdrum by Bret Aarden
